public/img/svg/google.svg

<svg width="183" height="61" viewBox="0 0 183 61" fill="none" xmlns="http://www.w3.org/2000/svg">
<path d="M78.2256 31.026C78.2256 39.4237 71.5595 45.6118 63.3787 45.6118C55.1978 45.6118 48.5317 39.4237 48.5317 31.026C48.5317 22.5692 55.1978 16.4402 63.3787 16.4402C71.5595 16.4402 78.2256 22.5692 78.2256 31.026ZM71.7263 31.026C71.7263 25.7783 67.8628 22.1877 63.3787 22.1877C58.8945 22.1877 55.031 25.7783 55.031 31.026C55.031 36.2211 58.8945 39.8643 63.3787 39.8643C67.8628 39.8643 71.7263 36.2145 71.7263 31.026Z" fill="#E3E4E6" fill-opacity="0.55"/>
<path d="M110.255 31.026C110.255 39.4237 103.589 45.6118 95.408 45.6118C87.2272 45.6118 80.5611 39.4237 80.5611 31.026C80.5611 22.5757 87.2272 16.4402 95.408 16.4402C103.589 16.4402 110.255 22.5692 110.255 31.026ZM103.756 31.026C103.756 25.7783 99.8921 22.1877 95.408 22.1877C90.9239 22.1877 87.0604 25.7783 87.0604 31.026C87.0604 36.2211 90.9239 39.8643 95.408 39.8643C99.8921 39.8643 103.756 36.2145 103.756 31.026Z" fill="#E3E4E6" fill-opacity="0.55"/>
<path d="M140.95 17.3214V43.5074C140.95 54.279 134.504 58.6785 126.884 58.6785C119.71 58.6785 115.393 53.9502 113.765 50.0835L119.423 47.7621C120.431 50.1361 122.9 52.9375 126.877 52.9375C131.755 52.9375 134.777 49.9717 134.777 44.3886V42.2908H134.551C133.096 44.0598 130.293 45.6052 126.757 45.6052C119.357 45.6052 112.577 39.2527 112.577 31.0786C112.577 22.8454 119.357 16.4402 126.757 16.4402C130.287 16.4402 133.089 17.9856 134.551 19.702H134.777V17.328H140.95V17.3214ZM135.238 31.0786C135.238 25.9427 131.761 22.1877 127.337 22.1877C122.853 22.1877 119.096 25.9427 119.096 31.0786C119.096 36.1619 122.853 39.8643 127.337 39.8643C131.761 39.8643 135.238 36.1619 135.238 31.0786Z" fill="#E3E4E6" fill-opacity="0.55"/>
<path d="M151.126 1.97278V44.7173H144.787V1.97278H151.126Z" fill="#E3E4E6" fill-opacity="0.55"/>
<path d="M175.829 35.8265L180.873 39.1409C179.245 41.5149 175.322 45.6052 168.542 45.6052C160.134 45.6052 153.855 39.2001 153.855 31.0194C153.855 22.3456 160.188 16.4337 167.815 16.4337C175.495 16.4337 179.252 22.4574 180.48 25.7125L181.154 27.3697L161.369 35.4451C162.884 38.3715 165.239 39.8643 168.542 39.8643C171.852 39.8643 174.147 38.2597 175.829 35.8265ZM160.301 30.5788L173.527 25.1667C172.799 23.3451 170.611 22.0759 168.035 22.0759C164.732 22.0759 160.134 24.9497 160.301 30.5788Z" fill="#E3E4E6" fill-opacity="0.55"/>
<path d="M24.5366 27.2316V21.0435H45.696C45.9029 22.122 46.0096 23.3978 46.0096 24.7788C46.0096 29.4215 44.7218 35.1624 40.5713 39.2527C36.5343 43.3957 31.3762 45.6052 24.5433 45.6052C11.8783 45.6052 1.22852 35.4386 1.22852 22.9572C1.22852 10.4758 11.8783 0.309143 24.5433 0.309143C31.5497 0.309143 36.5409 3.01849 40.291 6.54985L35.8603 10.9164C33.1712 8.43061 29.5278 6.49724 24.5366 6.49724C15.2881 6.49724 8.05478 13.8427 8.05478 22.9572C8.05478 32.0716 15.2881 39.4171 24.5366 39.4171C30.5354 39.4171 33.9519 37.0432 36.1406 34.8862C37.9155 33.137 39.0833 30.6381 39.5437 27.2251L24.5366 27.2316Z" fill="#E3E4E6" fill-opacity="0.55"/>
</svg>

<svg width="183" height="61" fill="none" xmlns="http://www.w3.org/2000/svg"><path d="M78.226 31.026c0 8.398-6.666 14.586-14.847 14.586s-14.847-6.188-14.847-14.586c0-8.457 6.666-14.586 14.847-14.586 8.18 0 14.847 6.13 14.847 14.586Zm-6.5 0c0-5.248-3.863-8.838-8.347-8.838s-8.348 3.59-8.348 8.838c0 5.195 3.864 8.838 8.348 8.838 4.484 0 8.347-3.65 8.347-8.838Zm38.529 0c0 8.398-6.666 14.586-14.847 14.586-8.18 0-14.847-6.188-14.847-14.586 0-8.45 6.666-14.586 14.847-14.586s14.847 6.13 14.847 14.586Zm-6.499 0c0-5.248-3.864-8.838-8.348-8.838-4.484 0-8.348 3.59-8.348 8.838 0 5.195 3.864 8.838 8.348 8.838 4.484 0 8.348-3.65 8.348-8.838Zm37.194-13.705v26.186c0 10.772-6.446 15.172-14.066 15.172-7.174 0-11.491-4.729-13.119-8.596l5.658-2.32c1.008 2.373 3.477 5.175 7.454 5.175 4.878 0 7.9-2.966 7.9-8.55v-2.097h-.226c-1.455 1.769-4.258 3.314-7.794 3.314-7.4 0-14.18-6.352-14.18-14.526 0-8.234 6.78-14.639 14.18-14.639 3.53 0 6.332 1.546 7.794 3.262h.226v-2.374h6.173v-.007Zm-5.712 13.758c0-5.136-3.477-8.891-7.901-8.891-4.484 0-8.241 3.755-8.241 8.89 0 5.084 3.757 8.786 8.241 8.786 4.424 0 7.901-3.702 7.901-8.785Zm15.888-29.106v42.744h-6.339V1.973h6.339Zm24.703 33.854 5.044 3.314c-1.628 2.374-5.551 6.464-12.331 6.464-8.408 0-14.687-6.405-14.687-14.586 0-8.673 6.333-14.585 13.96-14.585 7.68 0 11.437 6.023 12.665 9.278l.674 1.658-19.785 8.075c1.515 2.926 3.87 4.42 7.173 4.42 3.31 0 5.605-1.605 7.287-4.038Zm-15.528-5.248 13.226-5.412c-.728-1.822-2.916-3.091-5.492-3.091-3.303 0-7.901 2.874-7.734 8.503ZM24.537 27.232v-6.188h21.159c.207 1.078.314 2.354.314 3.735 0 4.643-1.288 10.383-5.439 14.474-4.037 4.143-9.195 6.352-16.028 6.352-12.665 0-23.314-10.166-23.314-22.648C1.229 10.476 11.879.31 24.543.31c7.007 0 11.998 2.71 15.748 6.24l-4.43 4.367c-2.69-2.485-6.333-4.419-11.324-4.419-9.249 0-16.482 7.346-16.482 16.46 0 9.115 7.233 16.46 16.482 16.46 5.998 0 9.415-2.374 11.604-4.53 1.775-1.75 2.942-4.249 3.403-7.662l-15.007.007Z" fill="#E3E4E6" fill-opacity=".55"/></svg>
